X:19
T:My Lady Errol's Lament
Z:Jack Campin - http://www.campin.me.uk
S:Blaikie MS (NLS MS.1578) p7, Blaikie #18
M:C
L:1/8
V:1 midi program 1 74
V:2 midi program 1 46 bass middle = d transpose -24
Q:1/4=80
K:Eb
[V:1] EF|G2FG e2dc|BGFE CEFG|EFGB B,GFE|C2E2 E2||
[V:2] z2|e2e2 E2e2|Eefg agfe|E2e2 E`efg|a2g2 e2||
%
[V:1] c2|BGBc efge|fgfe B3 c|Bcef g`fec|e2B2 B2
[V:2] z2|E2e2 E2e2|B2b2 b2a2|gagf e`fga|g2e2 e2
%
[V:1] ef|gfec ecBG|BGFE CEFG|EFGB B,GFE|C2E2 E2|]
[V:2] z2|e2z2 e2z2|Eefg agfe|E2e2 E`efg|a2e2 e2|]
W:Transcription (c) Jack Campin 2009, no mirroring or republication without permission

